X:640
T: "Das Schlaraffenland"
N: Z1321
O: Europa, Mitteleuropa, Deutschland, Nord - Deutschland
R: Zech -, Schalks - Lied
M: 4/4
L: 1/8
K: Bb
f4 | b2f2d2f2 | b4
d4 | c2b2a2g2 | f4
g4 | f2e2d2e2 | f3gf2
g2 | f2e2d2e2 | f3gf2
f2 | b2b2c2c2 | d3ef2
e2 | d2d2c2c2 | b4

@@@ Tune index: 10398
